app/renderer/assets/image/components/lcd.svg

<?xml version="1.0" encoding="UTF-8"?>
<svg width="150px" height="150px" viewBox="0 0 150 150" version="1.1" xmlns="http://www.w3.org/2000/svg" xmlns:xlink="http://www.w3.org/1999/xlink">
    <!-- Generator: Sketch 46.1 (44463) - http://www.bohemiancoding.com/sketch -->
    <title>lcd</title>
    <desc>Created with Sketch.</desc>
    <defs></defs>
    <g id="Page-1" stroke="none" stroke-width="1" fill="none" fill-rule="evenodd">
        <g id="lcd">
            <path d="M100.446809,39.8571429 C100.446809,39.5079365 100.276596,39.1587302 100.106383,38.984127 C99.9361702,38.8095238 99.2553191,38.4603175 98.5744681,38.2857143 C97.893617,38.1111111 97.212766,37.7619048 96.8723404,37.5873016 C95.6808511,36.8888889 95.1702128,36.015873 95.1702128,34.968254 C95.1702128,34.4444444 95.3404255,33.9206349 95.6808511,33.3968254 C96.0212766,32.8730159 96.3617021,32.5238095 97.0425532,32.3492063 C97.7234043,32.1746032 98.2340426,32 99.0851064,32 C99.7659574,32 100.446809,32.1746032 101.12766,32.3492063 C101.638298,32.6984127 102.148936,33.047619 102.489362,33.5714286 C102.829787,34.0952381 103,34.6190476 103,35.3174603 L100.957447,35.3174603 C100.957447,34.7936508 100.787234,34.4444444 100.446809,34.2698413 C100.106383,33.9206349 99.7659574,33.9206349 99.2553191,33.9206349 C98.7446809,33.9206349 98.4042553,34.0952381 98.0638298,34.2698413 C97.7234043,34.4444444 97.5531915,34.7936508 97.5531915,35.1428571 C97.5531915,35.4920635 97.7234043,35.8412698 98.0638298,36.015873 C98.4042553,36.1904762 98.9148936,36.5396825 99.5957447,36.7142857 C100.787234,37.0634921 101.638298,37.5873016 102.148936,38.1111111 C102.659574,38.6349206 103,39.3333333 103,40.2063492 C103,41.0793651 102.659574,41.7777778 101.978723,42.3015873 C101.297872,42.8253968 100.446809,43 99.2553191,43 C98.4042553,43 97.7234043,42.8253968 97.0425532,42.4761905 C96.3617021,42.1269841 95.8510638,41.7777778 95.5106383,41.2539683 C95.1702128,40.7301587 95,40.2063492 95,39.5079365 L97.0425532,39.5079365 C97.0425532,40.7301587 97.7234043,41.2539683 99.0851064,41.2539683 C99.5957447,41.2539683 99.9361702,41.0793651 100.276596,40.9047619 C100.617021,40.7301587 100.446809,40.2063492 100.446809,39.8571429 Z" id="Shape" fill="#838698" fill-rule="nonzero"></path>
            <polygon id="Shape" fill="#838698" fill-rule="nonzero" points="118.333333 41.1666667 123 41.1666667 123 43 116 43 116 32 118.153846 32 118.153846 41.1666667"></polygon>
            <path d="M113,39.2741935 C113,40.516129 112.510204,41.4032258 111.857143,41.9354839 C111.204082,42.6451613 110.22449,43 109.081633,43 C107.77551,43 106.795918,42.4677419 106.142857,41.5806452 C105.489796,40.6935484 105,39.4516129 105,37.8548387 L105,37.1451613 C105,36.0806452 105.163265,35.1935484 105.489796,34.483871 C105.816327,33.7741935 106.306122,33.0645161 106.959184,32.7096774 C107.612245,32.3548387 108.265306,32 109.081633,32 C110.22449,32 111.204082,32.3548387 111.857143,33.0645161 C112.510204,33.7741935 113,34.6612903 113,35.9032258 L111.040816,35.9032258 C111.040816,35.1935484 110.877551,34.6612903 110.55102,34.483871 C110.22449,34.3064516 109.734694,33.9516129 109.081633,33.9516129 C108.428571,33.9516129 107.938776,34.1290323 107.612245,34.6612903 C107.285714,35.1935484 107.122449,36.0806452 107.122449,37.1451613 L107.122449,38.0322581 C107.122449,39.2741935 107.285714,39.983871 107.612245,40.516129 C107.938776,41.0483871 108.428571,41.4032258 109.081633,41.4032258 C109.734694,41.4032258 110.22449,41.2258065 110.55102,40.8709677 C110.877551,40.516129 111.040816,40.1612903 111.040816,39.4516129 L113,39.4516129 L113,39.2741935 Z" id="Shape" fill="#838698" fill-rule="nonzero"></path>
            <path d="M32.4468085,39.8571429 C32.4468085,39.5079365 32.2765957,39.1587302 32.106383,38.984127 C31.9361702,38.8095238 31.2553191,38.4603175 30.5744681,38.2857143 C29.893617,38.1111111 29.212766,37.7619048 28.8723404,37.5873016 C27.6808511,36.8888889 27.1702128,36.015873 27.1702128,34.968254 C27.1702128,34.4444444 27.3404255,33.9206349 27.6808511,33.3968254 C28.0212766,32.8730159 28.3617021,32.5238095 29.0425532,32.3492063 C29.7234043,32.1746032 30.2340426,32 31.0851064,32 C31.7659574,32 32.4468085,32.1746032 33.1276596,32.3492063 C33.6382979,32.6984127 34.1489362,33.047619 34.4893617,33.5714286 C34.8297872,34.0952381 35,34.6190476 35,35.3174603 L32.9574468,35.3174603 C32.9574468,34.7936508 32.787234,34.4444444 32.4468085,34.2698413 C32.106383,33.9206349 31.7659574,33.9206349 31.2553191,33.9206349 C30.7446809,33.9206349 30.4042553,34.0952381 30.0638298,34.2698413 C29.7234043,34.4444444 29.5531915,34.7936508 29.5531915,35.1428571 C29.5531915,35.4920635 29.7234043,35.8412698 30.0638298,36.015873 C30.4042553,36.1904762 30.9148936,36.5396825 31.5957447,36.7142857 C32.787234,37.0634921 33.6382979,37.5873016 34.1489362,38.1111111 C34.6595745,38.6349206 35,39.3333333 35,40.2063492 C35,41.0793651 34.6595745,41.7777778 33.9787234,42.3015873 C33.2978723,42.8253968 32.4468085,43 31.2553191,43 C30.4042553,43 29.7234043,42.8253968 29.0425532,42.4761905 C28.3617021,42.1269841 27.8510638,41.7777778 27.5106383,41.2539683 C27.1702128,40.7301587 27,40.2063492 27,39.5079365 L29.0425532,39.5079365 C29.0425532,40.7301587 29.7234043,41.2539683 31.0851064,41.2539683 C31.5957447,41.2539683 31.9361702,41.0793651 32.2765957,40.9047619 C32.6170213,40.7301587 32.4468085,40.2063492 32.4468085,39.8571429 Z" id="Shape" fill="#838698" fill-rule="nonzero"></path>
            <path d="M37,42.8196721 L37,32 L40.2340426,32 C41.0851064,32 41.9361702,32.1803279 42.6170213,32.7213115 C43.2978723,33.0819672 43.8085106,33.8032787 44.3191489,34.5245902 C44.6595745,35.2459016 45,36.147541 45,37.2295082 L45,37.7704918 C45,38.852459 44.8297872,39.7540984 44.4893617,40.4754098 C44.1489362,41.1967213 43.4680851,41.9180328 42.787234,42.2786885 C42.106383,42.6393443 41.2553191,43 40.4042553,43 L37,43 L37,42.8196721 Z M39.0425532,33.6229508 L39.0425532,40.8360656 L40.0638298,40.8360656 C40.9148936,40.8360656 41.5957447,40.4754098 41.9361702,39.9344262 C42.2765957,39.3934426 42.6170213,38.4918033 42.6170213,37.4098361 L42.6170213,36.8688525 C42.6170213,35.7868852 42.4468085,34.8852459 41.9361702,34.3442623 C41.4255319,33.8032787 40.9148936,33.442623 40.0638298,33.442623 L39.0425532,33.442623 L39.0425532,33.6229508 Z" id="Shape" fill="#838698" fill-rule="nonzero"></path>
            <path d="M53.5263158,40.8 L49.2807018,40.8 L48.5087719,43 L46,43 L50.245614,32 L52.5614035,32 L57,43 L54.4912281,43 L53.5263158,40.8 Z M50.0526316,38.9666667 L52.9473684,38.9666667 L51.4035088,34.75 L50.0526316,38.9666667 Z" id="Shape" fill="#838698" fill-rule="nonzero"></path>
            <polygon id="Shape" fill="#00979D" fill-rule="nonzero" points="145.2 112.8 145.2 58.9 5 58.9 5 112.8"></polygon>
            <path d="M116.2,68.7 C116.2,68.3 115.9,68 115.5,68 L14.5,68 C14.1,68 13.8,68.3 13.8,68.7 L13.8,69.1 C13.8,69.5 14.1,69.8 14.5,69.8 L115.5,69.8 C115.9,69.8 116.2,69.5 116.2,69.1 L116.2,68.7 L116.2,68.7 Z" id="Shape" fill="#1A1A1A" fill-rule="nonzero"></path>
            <path d="M115.8,69.3 C115.8,69 115.6,68.8 115.3,68.8 L14.6,68.8 C14.3,68.8 14.1,69 14.1,69.3 C14.1,69.6 14.3,69.8 14.6,69.8 L115.3,69.8 C115.6,69.8 115.8,69.6 115.8,69.3 Z" id="Shape" fill="#424242" fill-rule="nonzero"></path>
            <path d="M142,95.2 L142,76.6 L142.5,76.6 L142.5,63.1 L142.4,63.1 L141.1,61.8 L141.1,61.3 L140.6,61.3 L9.4,61.3 L8.9,61.3 L8.9,61.8 L7.6,63.1 L7.5,63.1 L7.5,76.6 L8,76.6 L8,95.2 L7.5,95.2 L7.5,108.7 L7.6,108.7 L8.9,110 L8.9,110.5 L8.9,110.5 L8.9,110.3 L8.9,110.3 L8.9,110.1 L141.1,110.1 L141.1,110.3 L141.1,110.3 L141.1,110.5 L141.1,110.5 L141.1,110 L142.4,108.7 L142.5,108.7 L142.5,95.2 L142,95.2 L142,95.2 Z M141.1,61.5 L141.1,61.5 L141.1,61.7 L9,61.7 L9,61.5 L9,61.5 L9,61.3 L141.2,61.3 L141.1,61.5 Z" id="Shape" fill="#3A3A3A" fill-rule="nonzero"></path>
            <polygon id="Shape" fill="#303030" fill-rule="nonzero" points="7.2 63.1 7.2 63.1 7.2 63.6 7.2 76.6 7.2 76.6"></polygon>
            <polygon id="Shape" fill="#303030" fill-rule="nonzero" points="142.9 76.6 142.9 63.6 142.9 63.1 142.9 63.1"></polygon>
            <polygon id="Shape" fill="#303030" fill-rule="nonzero" points="7.2 95.2 7.2 108.2 7.2 108.7 7.2 108.7"></polygon>
            <polygon id="Shape" fill="#303030" fill-rule="nonzero" points="142.9 108.7 142.9 108.7 142.9 108.2 142.9 95.2 142.9 95.2"></polygon>
            <rect id="Rectangle-path" fill="#212121" fill-rule="nonzero" x="9" y="61.3" width="132.2" height="1"></rect>
            <rect id="Rectangle-path" fill="#606060" fill-rule="nonzero" x="9" y="61.5" width="132.2" height="1"></rect>
            <rect id="Rectangle-path" fill="#606060" fill-rule="nonzero" x="9" y="61.5" width="132.2" height="1"></rect>
            <polygon id="Shape" fill="#212121" fill-rule="nonzero" points="7.2 63.1 7.4 63.1 7.4 63.1"></polygon>
            <rect id="Rectangle-path" fill="#212121" fill-rule="nonzero" x="7.2" y="95.2" width="1" height="13.5"></rect>
            <rect id="Rectangle-path" fill="#212121" fill-rule="nonzero" x="7.2" y="63.1" width="1" height="13.5"></rect>
            <rect id="Rectangle-path" fill="#606060" fill-rule="nonzero" x="7.5" y="63" width="1" height="1"></rect>
            <rect id="Rectangle-path" fill="#606060" fill-rule="nonzero" x="7.4" y="95.2" width="1" height="13.5"></rect>
            <rect id="Rectangle-path" fill="#606060" fill-rule="nonzero" x="7.4" y="63.1" width="1" height="13.5"></rect>
            <rect id="Rectangle-path" fill="#606060" fill-rule="nonzero" x="7.4" y="63.1" width="1" height="1"></rect>
            <rect id="Rectangle-path" fill="#606060" fill-rule="nonzero" x="7.4" y="63.1" width="1" height="13.5"></rect>
            <rect id="Rectangle-path" fill="#606060" fill-rule="nonzero" x="7.4" y="95.2" width="1" height="13.5"></rect>
            <rect id="Rectangle-path" fill="#212121" fill-rule="nonzero" x="142.8" y="63" width="1" height="1"></rect>
            <rect id="Rectangle-path" fill="#212121" fill-rule="nonzero" x="142.7" y="63.1" width="1" height="13.5"></rect>
            <rect id="Rectangle-path" fill="#212121" fill-rule="nonzero" x="142.7" y="95.2" width="1" height="13.5"></rect>
            <polygon id="Shape" fill="#606060" fill-rule="nonzero" points="142.6 63.1 142.7 63.1 142.7 63.1"></polygon>
            <rect id="Rectangle-path" fill="#606060" fill-rule="nonzero" x="142.6" y="95.2" width="1" height="13.5"></rect>
            <rect id="Rectangle-path" fill="#606060" fill-rule="nonzero" x="142.6" y="63.1" width="1" height="13.5"></rect>
            <polygon id="Shape" fill="#2B2B2B" fill-rule="nonzero" points="9.4 110.5 9 110.5 9 110.5 141.1 110.5 141.1 110.5 140.7 110.5"></polygon>
            <polygon id="Shape" fill="#2B2B2B" fill-rule="nonzero" points="9 110.3 9 110.5 9.4 110.5 140.7 110.5 141.1 110.5 141.1 110.3"></polygon>
            <rect id="Rectangle-path" fill="#606060" fill-rule="nonzero" x="9" y="110.1" width="132.2" height="1"></rect>
            <polygon id="Shape" fill="#606060" fill-rule="nonzero" points="9 110.3 141.1 110.3 141.1 110.3"></polygon>
            <path d="M137.1,99.2 C137.1,100.6 135.9,101.8 134.5,101.8 L15.6,101.8 C14.2,101.8 13,100.6 13,99.2 L13,72.7 C13,71.3 14.2,70.1 15.6,70.1 L134.5,70.1 C135.9,70.1 137.1,71.3 137.1,72.7 L137.1,99.2 L137.1,99.2 Z" id="Shape" fill="#68C17B" fill-rule="nonzero"></path>
            <path d="M15.6,70 C14.2,70 13,71.2 13,72.6 L13,99.1 C13,100.5 14.2,101.7 15.6,101.7 L17.1,101.7 C15.7,101.7 14.5,100.5 14.5,99.1 L14.5,73.5 C14.5,72.1 15.7,70.9 17.1,70.9 L136.4,70.9 C135.9,70.4 135.2,70 134.5,70 L15.6,70 L15.6,70 Z M137.1,72.6 L137.1,99.1 C137.1,99.1 137.1,99.1 137.1,99.1 L137.1,72.6 C137.1,72.6 137.1,72.6 137.1,72.6 Z" id="Shape" fill="#487B50" fill-rule="nonzero"></path>
            <path d="M7.7,63.2 L9.1,61.8" id="Shape" stroke-opacity="0.2" stroke="#F2F2F2" stroke-width="0.0914" stroke-linecap="round"></path>
            <path d="M9.1,110 L7.7,108.6" id="Shape" stroke-opacity="0.2" stroke="#F2F2F2" stroke-width="0.0914" stroke-linecap="round"></path>
            <path d="M137.1,99.2 C137.1,100.6 135.9,101.8 134.5,101.8 L15.6,101.8 C14.2,101.8 13,100.6 13,99.2 L13,72.7 C13,71.3 14.2,70.1 15.6,70.1 L134.5,70.1 C135.9,70.1 137.1,71.3 137.1,72.7 L137.1,99.2 L137.1,99.2 Z" id="Shape" stroke="#65BB78" stroke-width="0.5484"></path>
            <rect id="Rectangle-path" fill-opacity="0.15" fill="#1A1A1A" fill-rule="nonzero" x="19.3" y="87" width="6.5" height="10.8"></rect>
            <rect id="Rectangle-path" fill-opacity="0.15" fill="#1A1A1A" fill-rule="nonzero" x="28" y="87" width="6.5" height="10.8"></rect>
            <rect id="Rectangle-path" fill-opacity="0.15" fill="#1A1A1A" fill-rule="nonzero" x="36.7" y="87" width="6.5" height="10.8"></rect>
            <rect id="Rectangle-path" fill-opacity="0.15" fill="#1A1A1A" fill-rule="nonzero" x="45.3" y="87" width="6.5" height="10.8"></rect>
            <rect id="Rectangle-path" fill-opacity="0.15" fill="#1A1A1A" fill-rule="nonzero" x="54" y="87" width="6.5" height="10.8"></rect>
            <rect id="Rectangle-path" fill-opacity="0.15" fill="#1A1A1A" fill-rule="nonzero" x="19.3" y="74.1" width="6.5" height="10.8"></rect>
            <rect id="Rectangle-path" fill-opacity="0.15" fill="#1A1A1A" fill-rule="nonzero" x="28" y="74.1" width="6.5" height="10.8"></rect>
            <rect id="Rectangle-path" fill-opacity="0.15" fill="#1A1A1A" fill-rule="nonzero" x="36.7" y="74.1" width="6.5" height="10.8"></rect>
            <rect id="Rectangle-path" fill-opacity="0.15" fill="#1A1A1A" fill-rule="nonzero" x="45.3" y="74.1" width="6.5" height="10.8"></rect>
            <rect id="Rectangle-path" fill-opacity="0.15" fill="#1A1A1A" fill-rule="nonzero" x="54" y="74.1" width="6.5" height="10.8"></rect>
            <rect id="Rectangle-path" fill-opacity="0.15" fill="#1A1A1A" fill-rule="nonzero" x="63" y="87" width="6.5" height="10.8"></rect>
            <rect id="Rectangle-path" fill-opacity="0.15" fill="#1A1A1A" fill-rule="nonzero" x="71.7" y="87" width="6.5" height="10.8"></rect>
            <rect id="Rectangle-path" fill-opacity="0.15" fill="#1A1A1A" fill-rule="nonzero" x="80.3" y="87" width="6.5" height="10.8"></rect>
            <rect id="Rectangle-path" fill-opacity="0.15" fill="#1A1A1A" fill-rule="nonzero" x="89" y="87" width="6.5" height="10.8"></rect>
            <rect id="Rectangle-path" fill-opacity="0.15" fill="#1A1A1A" fill-rule="nonzero" x="97.7" y="87" width="6.5" height="10.8"></rect>
            <rect id="Rectangle-path" fill-opacity="0.15" fill="#1A1A1A" fill-rule="nonzero" x="63" y="74.1" width="6.5" height="10.8"></rect>
            <rect id="Rectangle-path" fill-opacity="0.15" fill="#1A1A1A" fill-rule="nonzero" x="71.7" y="74.1" width="6.5" height="10.8"></rect>
            <rect id="Rectangle-path" fill-opacity="0.15" fill="#1A1A1A" fill-rule="nonzero" x="80.3" y="74.1" width="6.5" height="10.8"></rect>
            <rect id="Rectangle-path" fill-opacity="0.15" fill="#1A1A1A" fill-rule="nonzero" x="89" y="74.1" width="6.5" height="10.8"></rect>
            <rect id="Rectangle-path" fill-opacity="0.15" fill="#1A1A1A" fill-rule="nonzero" x="97.7" y="74.1" width="6.5" height="10.8"></rect>
            <rect id="Rectangle-path" fill-opacity="0.15" fill="#1A1A1A" fill-rule="nonzero" x="106.8" y="87" width="6.5" height="10.8"></rect>
            <rect id="Rectangle-path" fill-opacity="0.15" fill="#1A1A1A" fill-rule="nonzero" x="115.5" y="87" width="6.5" height="10.8"></rect>
            <rect id="Rectangle-path" fill-opacity="0.15" fill="#1A1A1A" fill-rule="nonzero" x="124.2" y="87" width="6.5" height="10.8"></rect>
            <rect id="Rectangle-path" fill-opacity="0.15" fill="#1A1A1A" fill-rule="nonzero" x="106.8" y="74.1" width="6.5" height="10.8"></rect>
            <rect id="Rectangle-path" fill-opacity="0.15" fill="#1A1A1A" fill-rule="nonzero" x="115.5" y="74.1" width="6.5" height="10.8"></rect>
            <rect id="Rectangle-path" fill-opacity="0.15" fill="#1A1A1A" fill-rule="nonzero" x="124.2" y="74.1" width="6.5" height="10.8"></rect>
        </g>
    </g>
</svg>

<svg width="150" height="150" xmlns="http://www.w3.org/2000/svg"><g fill="none" fill-rule="evenodd"><path d="M100.447 39.857c0-.35-.17-.698-.34-.873-.17-.174-.852-.524-1.533-.698-.68-.175-1.361-.524-1.702-.699-1.191-.698-1.702-1.571-1.702-2.619 0-.524.17-1.047.51-1.571.341-.524.682-.873 1.363-1.048.68-.174 1.191-.349 2.042-.349.681 0 1.362.175 2.043.35.51.348 1.02.698 1.361 1.221.34.524.511 1.048.511 1.746h-2.043c0-.523-.17-.873-.51-1.047-.34-.35-.681-.35-1.192-.35-.51 0-.85.175-1.191.35a.964.964 0 0 0-.51.873c0 .35.17.698.51.873.34.174.85.524 1.532.698 1.191.35 2.042.873 2.553 1.397a2.93 2.93 0 0 1 .851 2.095c0 .873-.34 1.572-1.021 2.096-.681.523-1.532.698-2.724.698a4.615 4.615 0 0 1-2.212-.524c-.681-.349-1.192-.698-1.532-1.222A3.008 3.008 0 0 1 95 39.508h2.043c0 1.222.68 1.746 2.042 1.746.51 0 .851-.175 1.192-.35.34-.174.17-.698.17-1.047zm17.886 1.31H123V43h-7V32h2.154v9.167zM113 39.274c0 1.242-.49 2.13-1.143 2.661-.653.71-1.633 1.065-2.775 1.065-1.306 0-2.286-.532-2.94-1.42-.652-.886-1.142-2.128-1.142-3.725v-.71c0-1.064.163-1.951.49-2.661.326-.71.816-1.42 1.47-1.774.652-.355 1.305-.71 2.122-.71 1.142 0 2.122.355 2.775 1.065S113 34.66 113 35.903h-1.96c0-.71-.162-1.242-.489-1.42-.327-.177-.816-.531-1.47-.531-.652 0-1.142.177-1.469.71-.326.532-.49 1.419-.49 2.483v.887c0 1.242.164 1.952.49 2.484.327.532.817.887 1.47.887s1.142-.177 1.469-.532c.327-.355.49-.71.49-1.42H113v-.177zm-80.553.583c0-.35-.17-.698-.34-.873-.17-.174-.852-.524-1.533-.698-.68-.175-1.361-.524-1.702-.699-1.191-.698-1.702-1.571-1.702-2.619 0-.524.17-1.047.51-1.571.341-.524.682-.873 1.363-1.048.68-.174 1.191-.349 2.042-.349.681 0 1.362.175 2.043.35.51.348 1.02.698 1.361 1.221.34.524.511 1.048.511 1.746h-2.043c0-.523-.17-.873-.51-1.047-.34-.35-.681-.35-1.192-.35-.51 0-.85.175-1.191.35a.964.964 0 0 0-.51.873c0 .35.17.698.51.873.34.174.85.524 1.532.698 1.191.35 2.042.873 2.553 1.397A2.93 2.93 0 0 1 35 40.206c0 .873-.34 1.572-1.021 2.096-.681.523-1.532.698-2.724.698a4.615 4.615 0 0 1-2.212-.524c-.681-.349-1.192-.698-1.532-1.222A3.008 3.008 0 0 1 27 39.508h2.043c0 1.222.68 1.746 2.042 1.746.51 0 .851-.175 1.192-.35.34-.174.17-.698.17-1.047zM37 42.82V32h3.234c.851 0 1.702.18 2.383.721.68.361 1.192 1.082 1.702 1.804.34.72.681 1.623.681 2.705v.54c0 1.082-.17 1.984-.51 2.705-.341.722-1.022 1.443-1.703 1.804-.68.36-1.532.721-2.383.721H37v-.18zm2.043-9.197v7.213h1.02c.852 0 1.533-.36 1.873-.902.34-.54.681-1.442.681-2.524v-.541c0-1.082-.17-1.984-.68-2.525-.511-.54-1.022-.901-1.873-.901h-1.021v.18zM53.526 40.8h-4.245l-.772 2.2H46l4.246-11h2.315L57 43h-2.509l-.965-2.2zm-3.473-1.833h2.894l-1.543-4.217-1.351 4.217z" fill="#838698" fill-rule="nonzero"/><path fill="#00979D" fill-rule="nonzero" d="M145.2 112.8V58.9H5v53.9z"/><path d="M116.2 68.7c0-.4-.3-.7-.7-.7h-101c-.4 0-.7.3-.7.7v.4c0 .4.3.7.7.7h101c.4 0 .7-.3.7-.7v-.4z" fill="#1A1A1A" fill-rule="nonzero"/><path d="M115.8 69.3c0-.3-.2-.5-.5-.5H14.6c-.3 0-.5.2-.5.5s.2.5.5.5h100.7c.3 0 .5-.2.5-.5z" fill="#424242" fill-rule="nonzero"/><path d="M142 95.2V76.6h.5V63.1h-.1l-1.3-1.3v-.5H8.9v.5l-1.3 1.3h-.1v13.5H8v18.6h-.5v13.5h.1l1.3 1.3v.5-.4h132.2v.4-.5l1.3-1.3h.1V95.2h-.5zm-.9-33.7v.2H9v-.4h132.2l-.1.2z" fill="#3A3A3A" fill-rule="nonzero"/><path fill="#303030" fill-rule="nonzero" d="M7.2 63.1v13.5zm135.7 13.5V63.1zM7.2 95.2v13.5zm135.7 13.5V95.2z"/><path fill="#212121" fill-rule="nonzero" d="M9 61.3h132.2v1H9z"/><path fill="#606060" fill-rule="nonzero" d="M9 61.5h132.2v1H9z"/><path fill="#606060" fill-rule="nonzero" d="M9 61.5h132.2v1H9z"/><path fill="#212121" fill-rule="nonzero" d="M7.2 63.1h.2zm0 32.1h1v13.5h-1zm0-32.1h1v13.5h-1z"/><path fill="#606060" fill-rule="nonzero" d="M7.5 63h1v1h-1zm-.1 32.2h1v13.5h-1z"/><path fill="#606060" fill-rule="nonzero" d="M7.4 63.1h1v13.5h-1z"/><path fill="#606060" fill-rule="nonzero" d="M7.4 63.1h1v1h-1z"/><path fill="#606060" fill-rule="nonzero" d="M7.4 63.1h1v13.5h-1zm0 32.1h1v13.5h-1z"/><path fill="#212121" fill-rule="nonzero" d="M142.8 63h1v1h-1z"/><path fill="#212121" fill-rule="nonzero" d="M142.7 63.1h1v13.5h-1zm0 32.1h1v13.5h-1z"/><path fill="#606060" fill-rule="nonzero" d="M142.6 63.1h.1zm0 32.1h1v13.5h-1zm0-32.1h1v13.5h-1z"/><path fill="#2B2B2B" fill-rule="nonzero" d="M9.4 110.5H9h132.1-.4zm-.4-.2v.2h132.1v-.2z"/><path fill="#606060" fill-rule="nonzero" d="M9 110.1h132.2v1H9zm0 .2h132.1z"/><path d="M137.1 99.2c0 1.4-1.2 2.6-2.6 2.6H15.6c-1.4 0-2.6-1.2-2.6-2.6V72.7c0-1.4 1.2-2.6 2.6-2.6h118.9c1.4 0 2.6 1.2 2.6 2.6v26.5z" fill="#68C17B" fill-rule="nonzero"/><path d="M15.6 70c-1.4 0-2.6 1.2-2.6 2.6v26.5c0 1.4 1.2 2.6 2.6 2.6h1.5c-1.4 0-2.6-1.2-2.6-2.6V73.5c0-1.4 1.2-2.6 2.6-2.6h119.3c-.5-.5-1.2-.9-1.9-.9H15.6zm121.5 2.6v26.5-26.5z" fill="#487B50" fill-rule="nonzero"/><path d="M7.7 63.2l1.4-1.4m0 48.2l-1.4-1.4" stroke-opacity=".2" stroke="#F2F2F2" stroke-width=".091" stroke-linecap="round"/><path d="M137.1 99.2c0 1.4-1.2 2.6-2.6 2.6H15.6c-1.4 0-2.6-1.2-2.6-2.6V72.7c0-1.4 1.2-2.6 2.6-2.6h118.9c1.4 0 2.6 1.2 2.6 2.6v26.5z" stroke="#65BB78" stroke-width=".548"/><path fill-opacity=".15" fill="#1A1A1A" fill-rule="nonzero" d="M19.3 87h6.5v10.8h-6.5zm8.7 0h6.5v10.8H28zm8.7 0h6.5v10.8h-6.5zm8.6 0h6.5v10.8h-6.5zm8.7 0h6.5v10.8H54zM19.3 74.1h6.5v10.8h-6.5zm8.7 0h6.5v10.8H28zm8.7 0h6.5v10.8h-6.5zm8.6 0h6.5v10.8h-6.5zm8.7 0h6.5v10.8H54zM63 87h6.5v10.8H63zm8.7 0h6.5v10.8h-6.5zm8.6 0h6.5v10.8h-6.5zm8.7 0h6.5v10.8H89zm8.7 0h6.5v10.8h-6.5zM63 74.1h6.5v10.8H63zm8.7 0h6.5v10.8h-6.5zm8.6 0h6.5v10.8h-6.5zm8.7 0h6.5v10.8H89zm8.7 0h6.5v10.8h-6.5zm9.1 12.9h6.5v10.8h-6.5zm8.7 0h6.5v10.8h-6.5zm8.7 0h6.5v10.8h-6.5zm-17.4-12.9h6.5v10.8h-6.5zm8.7 0h6.5v10.8h-6.5zm8.7 0h6.5v10.8h-6.5z"/></g></svg>
